X: 4
T: Triumphal March, The
T: Munster Volunteers, The
M: 4/4
L: 1/8
R: march
K: Dmaj
|: AB/c/ |\ 
d2 d>c dA FD | .A2 A>^G A2 F>=G | AB/A/ ^GA BA FD | E2 A>^G AA Bc |
d2 d>c dA F/E/D | A2 A>^G A2 F=G | A/F/D B/G/E d2 c2 |[1 d2 d2 d2 :|[2 d2- d2- dD ||
|: EF |\ 
G2 G>F GB AG | GF F/F/E F2 AB/c/ | d>c BA G/G/F ED | A2 A>^G AA Bc |
d2 d>c dA FD | .A2 A>^G A2 F=G | A/F/D B/G/E d2 c2 | d2- d2- dD :|
|: EF |\ 
GA cA eA c/B/A | FA dA fA dA | GA cA eA c/B/A | FA dA fA dc |
B2 B>^A B2 e/d/c/B/ | A2 A>^G A2 =g2 | f2 a/g/f/e/ d2 c2 |[1 e2- e2 dD :|[2 e2- e2- e2 |]
